24x24/actions/gnumeric-object-spinbutton.svg

<svg viewBox="0 0 24 24" xmlns="http://www.w3.org/2000/svg"><path d="m7 12v8h10v-8zm1.781 2 3.219 3.5 3.188-3.5.812.625-3.625 3.938-.375.437-.375-.438-3.625-3.936z" fill="#b3b3b3"/><path d="m7 4v8h10v-8zm5 1 .375.438 3.625 3.936-.813.625-3.187-3.499-3.219 3.5-.781-.625 3.625-3.938z" fill="#8b9cbe"/></svg>

<svg viewBox="0 0 24 24" xmlns="http://www.w3.org/2000/svg">
    <path d="M7 12v8h10v-8zm1.781 2L12 17.5l3.188-3.5.812.625-3.625 3.938L12 19l-.375-.438L8 14.626z" fill="#b3b3b3"/>
    <path d="M7 4v8h10V4zm5 1 .375.438L16 9.374l-.813.625L12 6.5 8.781 10 8 9.375l3.625-3.938z" fill="#8b9cbe"/>
</svg>
